X: 4030
T: BILLY MACKINNON
R: Strathspey.
%R: strathspey
B: James Kerr "Merry Melodies" v.4 p.06 #30
Z: 2016 John Chambers <jc:trillian.mit.edu>
M: C
L: 1/8
K: A
uf |\
e<c c<e f2 (f<a) | e<c B>A G<B B>f |\
e<c c<e f2 (f<a) | e<c B>c A3 ::\
d |\
c<e e>a (f<d) d2 | e<c B>A (G>B) B>d |\
c<e e>a (f<d) (f<a) | e<c B>c A3 :|

%%sep 1 1 500
%%sep 1 1 500

